src/assets/icons/richtext-link-add.svg

<svg width="16" height="16" viewBox="0 0 16 16" fill="none" xmlns="http://www.w3.org/2000/svg">
<g clip-path="url(#clip0_8874_15350)">
<path fill-rule="evenodd" clip-rule="evenodd" d="M10.8303 0.0169458C9.91886 0.0971616 9.02322 0.459389 8.28192 1.04761C8.18249 1.12651 7.70297 1.59087 7.13416 2.1591C6.20047 3.09184 6.15445 3.14074 6.09512 3.26332C5.94053 3.5826 5.98752 3.94052 6.2187 4.20479C6.47817 4.5014 6.92055 4.58182 7.27195 4.39625C7.33544 4.36274 7.62033 4.09073 8.33343 3.38274C8.87604 2.84401 9.36498 2.37306 9.43637 2.32032C10.0317 1.88063 10.7435 1.6723 11.4725 1.72441C12.2383 1.77914 12.9386 2.11023 13.4594 2.66384C13.8925 3.12431 14.1437 3.64155 14.2528 4.29786C14.2839 4.48483 14.288 4.94537 14.2603 5.13576C14.18 5.68781 13.9822 6.16162 13.6462 6.60635C13.6036 6.66278 13.1402 7.13987 12.6164 7.66655C12.0207 8.26554 11.6465 8.65478 11.617 8.70598C11.4339 9.02409 11.4755 9.43529 11.7179 9.70496C11.9809 9.99742 12.3802 10.0756 12.7367 9.90445C12.8596 9.84542 12.9052 9.80258 13.8407 8.86587C14.4057 8.30025 14.8737 7.81692 14.9522 7.71805C15.6011 6.90112 15.9572 5.94169 15.9966 4.90491C16.0464 3.59408 15.5477 2.32949 14.6103 1.38899C13.6182 0.393657 12.2388 -0.107012 10.8303 0.0169458ZM10.0369 4.95838C9.98636 4.96679 9.89402 4.9975 9.83174 5.02664C9.72517 5.07651 9.58242 5.21572 7.39907 7.39909C5.2168 9.58134 5.07647 9.72522 5.0267 9.83162C4.68803 10.5554 5.4451 11.3116 6.16921 10.9729C6.27448 10.9236 6.42516 10.7766 8.60089 8.6009C10.7766 6.42518 10.9236 6.27449 10.9729 6.16923C11.171 5.74578 10.9923 5.23636 10.5742 5.0327C10.4017 4.94865 10.2347 4.92555 10.0369 4.95838ZM3.4856 6.01844C3.43387 6.02677 3.33384 6.06138 3.2633 6.09535C3.14047 6.1545 3.09374 6.19847 2.15921 7.13412C1.59428 7.69974 1.12624 8.18307 1.04771 8.28194C0.62986 8.80805 0.314658 9.43341 0.152465 10.0581C-0.065012 10.8957 -0.049434 11.7983 0.196651 12.617C0.720832 14.3608 2.19575 15.6535 3.99005 15.9415C5.31308 16.1538 6.65269 15.7984 7.71804 14.9523C7.81691 14.8737 8.30024 14.4057 8.86585 13.8408C9.80257 12.9052 9.8454 12.8596 9.90443 12.7367C10.0332 12.4686 10.0211 12.1514 9.87326 11.9172C9.62645 11.5262 9.13116 11.3907 8.72801 11.6038C8.66462 11.6373 8.37624 11.9125 7.65798 12.6251C6.67526 13.6 6.58265 13.6835 6.28144 13.8668C5.96688 14.0581 5.56008 14.1978 5.13574 14.2601C4.93877 14.2891 4.48588 14.284 4.28075 14.2504C3.73179 14.1607 3.26429 13.9557 2.85374 13.6245C2.18111 13.082 1.78556 12.3283 1.72439 11.4725C1.67188 10.7378 1.88378 10.0205 2.32845 9.42784C2.38643 9.35056 2.84866 8.87067 3.3908 8.32489C4.40041 7.30852 4.41402 7.29284 4.46828 7.08455C4.59217 6.60888 4.29627 6.12634 3.81864 6.02516C3.68669 5.99722 3.62515 5.99597 3.4856 6.01844Z" fill="currentColor"/>
</g>
<defs>
<clipPath id="clip0_8874_15350">
<rect width="16" height="16" fill="white"/>
</clipPath>
</defs>
</svg>

<svg xmlns="http://www.w3.org/2000/svg" width="16" height="16" fill="none">
  <g clip-path="url(#a)">
    <path fill="currentColor" fill-rule="evenodd" d="M10.83.017a4.81 4.81 0 0 0-2.548 1.03c-.1.08-.579.544-1.148 1.112-.934.933-.98.982-1.039 1.104a.844.844 0 0 0 .124.942.87.87 0 0 0 1.053.191c.063-.033.348-.305 1.061-1.013.543-.539 1.032-1.01 1.103-1.063a3.04 3.04 0 0 1 2.037-.596 3.001 3.001 0 0 1 1.986.94c.434.46.685.978.794 1.634.03.187.035.647.007.838a3.105 3.105 0 0 1-.614 1.47 36.71 36.71 0 0 1-1.03 1.06c-.595.6-.97.989-.999 1.04a.865.865 0 0 0 .1.999.848.848 0 0 0 1.02.2c.123-.06.168-.102 1.104-1.04.565-.565 1.033-1.048 1.111-1.147a4.754 4.754 0 0 0 1.045-2.813 4.714 4.714 0 0 0-1.387-3.516A4.738 4.738 0 0 0 10.83.017Zm-.793 4.941a.976.976 0 0 0-.205.069c-.107.05-.25.189-2.433 2.372-2.182 2.182-2.323 2.326-2.372 2.433-.339.723.418 1.48 1.142 1.14.105-.048.256-.195 2.432-2.371s2.323-2.327 2.372-2.432a.862.862 0 0 0-.936-1.21Zm-6.551 1.06a1.016 1.016 0 0 0-.223.077c-.123.06-.17.103-1.104 1.04-.565.565-1.033 1.048-1.111 1.147a4.887 4.887 0 0 0-.896 1.776 4.794 4.794 0 0 0 .045 2.559 4.752 4.752 0 0 0 3.793 3.324 4.757 4.757 0 0 0 3.728-.989c.099-.078.582-.546 1.148-1.111.937-.936.98-.981 1.038-1.104a.859.859 0 0 0-.03-.82.87.87 0 0 0-1.146-.313c-.063.033-.352.309-1.07 1.021-.983.975-1.075 1.059-1.377 1.242a3.127 3.127 0 0 1-1.145.393 3.91 3.91 0 0 1-.855-.01 2.976 2.976 0 0 1-1.427-.626 2.995 2.995 0 0 1-1.13-2.152 3.027 3.027 0 0 1 .604-2.044c.058-.077.52-.557 1.063-1.103 1.01-1.016 1.023-1.032 1.077-1.24a.86.86 0 0 0-.65-1.06.741.741 0 0 0-.332-.007Z" clip-rule="evenodd"/>
  </g>
  <defs>
    <clipPath id="a">
      <path fill="#fff" d="M0 0h16v16H0z"/>
    </clipPath>
  </defs>
</svg>
